X: 37234
T: Siuil A Ruin
R: barndance
M: 4/4
K: Edorian
P: Chorus, 4 lines
"1st"B4 A2 BA|E2 D2 E4|"2nd"E2 F2 GG dB|AG ED D4|
"3rd"E3 F GG AG|E2 D2 E4|"4th"GA B4 A2-|AB AG ED E2-|E4 z2||
P: Verse, 4 lines
"1st"GA|B2 G2 A2 BA|E2 D2 E3 "2nd"D|E2 F2 G2 dB|AG EF D3 "3rd" D|
E2 F2 G2 AG|E2 D2 E4|"4th"GA B4 A2-|AB AG ED E2-|E4 z4||

